X:459
T:
R:vals
S:Uppt. såsom samlaren hört den spelas av Karl Odin, Kaupe i Fröjel.
O:Gotland, Fröjel
M:3/4
L:1/8
K:C
e3 dcB|c2 ^G2 A2|F4 D2|f3 ede|f2 d2 g2|e4 c2|e3 def|g^fgag2|d3 ^cde|fefg f2|^fgag=fd|c4 z2::e2 EE E2|e2 EE E2|E^F^GABG|A^GABce|1 d2DD D2|d2 DD D2|
DEFGAB|GA Bcdf:|2 eddggf|e^ff^gab|c'bbe^f^g|a4 z2::(ga)(ge)(c'a)|(ga)(ge) c2 | defd B2|cdef g2|(ga)(ge)(c'a)|(ga)(ge)(c>e)|
defgab|c'4 r2:|

